src/ui/icons/weather/82.svg

<?xml version="1.0" encoding="UTF-8"?>
<svg width="40px" height="40px" viewBox="0 0 40 40" version="1.1" xmlns="http://www.w3.org/2000/svg" xmlns:xlink="http://www.w3.org/1999/xlink">
    <title>48</title>
    <g id="Page-1" stroke="none" stroke-width="1" fill="none" fill-rule="evenodd">
        <g id="icons-day" transform="translate(-2545.000000, -6.000000)" fill="#FFFFFF" fill-rule="nonzero">
            <g id="icons" transform="translate(25.000000, 6.000000)">
                <g id="48" transform="translate(2521.499429, 7.499429)">
                    <path d="M14.4814811,1.77635684e-15 C17.3485996,1.77635684e-15 19.9181703,1.56384923 21.2708965,3.97139323 C18.9023155,4.98297341 17.1947732,7.23324591 16.9696329,9.90342583 L16.9696329,9.90342583 L16.5602889,9.90342583 C13.928092,9.90342583 11.7955048,12.0276163 11.7955048,14.6480177 C11.7955048,15.9036168 12.2851145,17.0451014 13.0845548,17.8936376 L4.69850941,17.893181 C2.10319848,17.893181 -2.20978791e-12,15.7901824 -2.20978791e-12,13.1949714 C-2.20978791e-12,10.672044 1.98788247,8.61398575 4.4833993,8.50159588 L4.69850941,8.4967619 L6.60968107,8.4967619 L6.72513707,7.12278552 C7.06200869,3.11111436 10.4288256,1.77635684e-15 14.4814811,1.77635684e-15 Z" id="Combined-Shape"></path>
                    <path d="M24.0812227,4.89813333 C26.4911043,4.89813333 28.609597,6.41535512 29.3985963,8.63710842 L29.3985963,8.63710842 L29.8145378,9.80846202 L31.0427697,9.61683505 C31.2579877,9.58324785 31.4771042,9.56625432 31.6990196,9.56625432 C34.0130377,9.56625432 35.8863238,11.4316434 35.8863238,13.7297676 C35.8863238,16.0276919 34.0130377,17.893181 31.6990196,17.893181 L31.6990196,17.893181 L16.5602889,17.893181 C14.7552768,17.893181 13.2949333,16.439235 13.2949333,14.6480177 C13.2949333,12.8569003 14.7549769,11.4028544 16.5602889,11.4028544 L16.5602889,11.4028544 L18.3478077,11.4028544 L18.4637635,10.0293778 C18.7072707,7.14097859 21.1446418,4.89813333 24.0812227,4.89813333 Z" id="Combined-Shape"></path>
                    <g id="Group" transform="translate(2.698971, 21.891657)">
                        <path d="M11.3956599,6.19903756 C11.3956599,7.74404876 10.1425347,8.99657143 8.59672381,8.99657143 C7.05091291,8.99657143 5.79779048,7.74404876 5.79779048,6.19903756 C5.79779048,5.77100069 5.89395383,5.36535528 6.06598827,5.00259352 L7.63339093,1.0147133 C8.16498834,-0.337771276 9.02646004,-0.338770895 9.55835733,1.0147133 L11.1184628,4.98380069 C11.3014788,5.36273768 11.3962498,5.7782196 11.3956599,6.19903756 L11.3956599,6.19903756 Z M3.79855351,4.13272503 C3.79855351,5.1627325 2.94817646,5.99771429 1.89927619,5.99771429 C0.850375924,5.99771429 0,5.1627325 0,4.13272503 C0,3.84733379 0.0652751238,3.57693684 0.181930667,3.33502903 L1.2456253,0.67644221 C1.60628785,-0.225214171 2.19086507,-0.225813943 2.5518275,0.67644221 L3.61042408,3.32253379 C3.73449193,3.57457669 3.79886404,3.85180091 3.79855351,4.13272503 Z" id="Shape"></path>
                        <path d="M27.2563127,2.06591269 L28.588605,1.27171535 C28.8437077,1.12317196 29.1699834,1.21133836 29.3173272,1.4686403 C29.4645711,1.72604221 29.3771045,2.0551168 29.1220017,2.20376015 L27.7894095,2.99885714 L29.1219017,3.79395413 C29.3771045,3.94259749 29.4645711,4.27167208 29.3172273,4.52907398 C29.1699834,4.78637592 28.8437077,4.87454232 28.588505,4.72599893 L27.2563127,3.9318016 L27.2563127,5.47041524 C27.2563127,5.76160427 27.0176037,5.99771429 26.7231159,5.99771429 C26.4287281,5.99771429 26.190019,5.76160427 26.190019,5.47041524 L26.190019,3.9318016 L24.7910522,4.72599893 C24.5359494,4.87454232 24.2096738,4.78637592 24.0623299,4.52907398 C23.915086,4.27167208 24.0025527,3.94259749 24.2576555,3.79395413 L25.5902476,2.99885714 L24.2577554,2.20376015 C24.0025527,2.0551168 23.915086,1.72604221 24.0624299,1.4686403 C24.2096738,1.21133836 24.5359494,1.12317196 24.7911522,1.27171535 L26.190019,2.06591269 L26.190019,0.527299048 C26.190019,0.236110019 26.4287281,0 26.7231159,0 C27.0176037,0 27.2563127,0.236110019 27.2563127,0.527299048 L27.2563127,2.06591269 L27.2563127,2.06591269 Z M18.7928381,3.09881905 L20.7912765,1.90757303 C21.1739307,1.68465798 21.6633442,1.81700754 21.88426,2.20306042 C22.1051758,2.58901333 21.9741257,3.08272518 21.5913716,3.30564023 L19.5925333,4.49828571 L21.5913716,5.69103116 C21.9741257,5.91394621 22.1051758,6.4075581 21.88426,6.79361097 C21.6633442,7.17956389 21.1739307,7.31191345 20.7912765,7.0889984 L18.7928381,5.89775238 L18.7928381,8.20567284 C18.7928381,8.64250636 18.4347746,8.99657143 17.9931429,8.99657143 C17.5515112,8.99657143 17.1934476,8.64250636 17.1934476,8.20567284 L17.1934476,5.89775238 L15.0950473,7.0889984 C14.7123931,7.31191345 14.2229797,7.17956389 14.0020638,6.79351101 C13.781148,6.4075581 13.9121981,5.91384625 14.2949522,5.6909312 L16.2937905,4.49828571 L14.2949522,3.30554027 C13.9121981,3.08262522 13.781148,2.58901333 14.0020638,2.20296046 C14.2229797,1.81700754 14.7123931,1.68465798 15.0950473,1.90757303 L17.1934476,3.09881905 L17.1934476,0.79089859 C17.1934476,0.354065067 17.5515112,0 17.9931429,0 C18.4347746,0 18.7928381,0.354065067 18.7928381,0.79089859 L18.7928381,3.09881905 Z" id="Shape"></path>
                    </g>
                </g>
            </g>
        </g>
    </g>
</svg>

<svg id="icon-icon_weather_82" width="40" height="40" viewBox="0 0 40 40">
    <g fill="none" fill-rule="evenodd">
        <g fill-rule="nonzero">
            <g>
                <g>
                    <path fill="#FFF" d="M15.98.5C11.408.5 7.61 4.01 7.229 8.539l-.038.458h-.992C3.05 8.997.5 11.547.5 14.694c0 3.148 2.55 5.698 5.698 5.698H25.89c3.81 0 6.898-3.088 6.898-6.897 0-3.81-3.089-6.898-6.898-6.898-.363 0-.723.028-1.077.084l-.41.064-.139-.391C23.034 2.874 19.734.5 15.981.5z" transform="translate(-2545 -6) translate(25 6) translate(2520 6)"/>
                    <path fill="#333" d="M15.98 1.5c-4.052 0-7.419 3.11-7.755 7.122l-.116 1.374H6.198c-2.595 0-4.699 2.103-4.699 4.698 0 2.596 2.104 4.699 4.699 4.699H25.89c3.257 0 5.898-2.64 5.898-5.898 0-3.257-2.64-5.898-5.898-5.898-.311 0-.62.024-.922.072l-1.23.193-.416-1.175C22.232 3.603 19.306 1.5 15.981 1.5zm0-1.5c4.042 0 7.48 2.582 8.756 6.187.382-.06.768-.09 1.154-.09 4.086 0 7.397 3.312 7.397 7.398 0 4.085-3.311 7.397-7.397 7.397H6.198C2.775 20.892 0 18.118 0 14.694c0-3.422 2.774-6.197 6.198-6.197h.532C7.13 3.737 11.12 0 15.981 0z" transform="translate(-2545 -6) translate(25 6) translate(2520 6)"/>
                    <path fill="#FFF" d="M25.536 5.262c-3.508 0-6.423 2.7-6.715 6.183l-.03.352h-.76c-2.415 0-4.372 1.962-4.372 4.383 0 2.42 1.957 4.382 4.372 4.382h15.107c2.923 0 5.292-2.375 5.292-5.305 0-2.93-2.37-5.305-5.292-5.305-.279 0-.555.022-.826.064l-.315.05-.106-.301c-.944-2.677-3.476-4.503-6.355-4.503z" transform="translate(-2545 -6) translate(25 6) translate(2520 6)"/>
                    <path fill="#333" d="M25.58 6.398c-2.936 0-5.373 2.242-5.617 5.13l-.116 1.374H18.06c-1.806 0-3.266 1.454-3.266 3.245 0 1.792 1.46 3.246 3.266 3.246h15.138c2.314 0 4.188-1.866 4.188-4.164 0-2.298-1.874-4.163-4.188-4.163-.221 0-.44.017-.656.05l-1.228.192-.416-1.171c-.789-2.222-2.907-3.74-5.317-3.74zm0-1.5c3.108 0 5.75 1.977 6.731 4.737.294-.046.59-.069.887-.069 3.141 0 5.687 2.536 5.687 5.663 0 3.128-2.546 5.663-5.687 5.663H18.06c-2.632 0-4.765-2.124-4.765-4.745 0-2.62 2.133-4.744 4.765-4.744h.41c.306-3.643 3.373-6.505 7.11-6.505z" transform="translate(-2545 -6) translate(25 6) translate(2520 6)"/>
                    <g fill="#333">
                        <path d="M11.396 6.199c0 1.545-1.253 2.798-2.8 2.798-1.545 0-2.798-1.253-2.798-2.798 0-.428.096-.834.268-1.196l1.567-3.988c.532-1.353 1.393-1.354 1.925 0l1.56 3.969c.183.379.278.794.278 1.215zM3.799 4.133c0 1.03-.85 1.865-1.9 1.865C.85 5.998 0 5.163 0 4.133c0-.286.065-.556.182-.798L1.246.676c.36-.901.945-.902 1.306 0L3.61 3.323c.124.252.189.529.189.81zM27.256 2.066l1.333-.794c.255-.149.581-.06.728.197.148.257.06.586-.195.735l-1.333.795 1.333.795c.255.149.343.478.195.735-.147.257-.473.346-.728.197l-1.333-.794V5.47c0 .292-.238.528-.533.528-.294 0-.533-.236-.533-.528V3.932l-1.399.794c-.255.149-.581.06-.729-.197-.147-.257-.06-.586.196-.735l1.332-.795-1.332-.795c-.255-.149-.343-.478-.196-.735.148-.258.474-.346.73-.197l1.398.794V.527c0-.29.239-.527.533-.527.295 0 .533.236.533.527v1.539zm-8.463 1.033l1.998-1.191c.383-.223.872-.091 1.093.295.221.386.09.88-.293 1.103l-1.998 1.192 1.998 1.193c.383.223.514.717.293 1.103-.22.386-.71.518-1.093.295l-1.998-1.191v2.308c0 .437-.358.79-.8.79-.441 0-.8-.353-.8-.79V5.898l-2.098 1.191c-.383.223-.872.09-1.093-.295-.22-.386-.09-.88.293-1.103l1.999-1.193-1.999-1.192c-.383-.223-.514-.717-.293-1.103.221-.386.71-.518 1.093-.295l2.098 1.19V.792c0-.437.359-.791.8-.791.442 0 .8.354.8.79V3.1z" transform="translate(-2545 -6) translate(25 6) translate(2520 6) translate(4.198 23.391)"/>
                    </g>
                </g>
            </g>
        </g>
    </g>
</svg>
